X:12
T:Bill Harte's
R:Reel
C:Trad.
D:John Williams: Steam
Q:1/2=100
M:2/2
K:G
| G8 | G4G4 |
%
|: DEGA BGGG | BGdB ABGE | DEGA Beed |1 BAAB A2GE :|2 BAAB A4
|: eAAA Bdeg | dGGF G2Bd |1 eAAA Bdeg | dBGB A4 :|2 eggg edea | gedB ABGE |
%
|: DEGA BGGG | BGdB ABGE | DEGA Beed |1 BAAB A2GE :|2 BAAB A4
|: eAAA Bdeg | dGGF G2Bd |1 eAAA Bdeg | dBGB A4 :|2 eggg edea | gedB ABGE |
%
|: DEGA BGGG | BGdB ABGE | DEGA Beed |1 BAAB A2GE :|2 BAAB A4
|: eAAA Bdeg | dGGF G2Bd |1 eAAA Bdeg | dBGB A4 :|2 eggg edea | gedB ABGE |
%
|: DEGA BGGG | BGdB ABGE | DEGA Beed |1 BAAB A2GE :|2 BAAB A4
|: eAAA Bdeg | dGGF G2Bd |1 eAAA Bdeg | dBGB A4 :|2 eggg edea | gedB ABGE |
%
|: DEGA BGGG | BGdB ABGE | DEGA Beed |1 BAAB A2GE :|2 BAAB A4
|: eAAA Bdeg | dGGF G2Bd |1 eAAA Bdeg | dBGB A4 :|2 eggg edea | gedB ABGE |
%
|: DEGA BGGG | BGdB ABGE | DEGA Beed |1 BAAB A2GE :|2 BAAB A4
|: eAAA Bdeg | dGGF G2Bd |1 eAAA Bdeg | dBGB A4 :|2 eggg edea | gedB ABGE |
%
|: DEGA BGGG | BGdB ABGE | DEGA Beed |1 BAAB A2GE :|2 BAAB A4
|: eAAA Bdeg | dGGF G2Bd |1 eAAA Bdeg | dBGB A4 :|2 eggg edea | gedB ABGE |
%

